src/images_karasa_jaga_svg/cmd/sc_basicshapes.hexagon.svg

<svg height="16" viewBox="0 0 16 16" width="16" xmlns="http://www.w3.org/2000/svg" xmlns:xlink="http://www.w3.org/1999/xlink"><linearGradient id="a" gradientUnits="userSpaceOnUse" x1=".609619" x2="127.39038" y1="63.999996" y2="63.999996"><stop offset="0" stop-color="#7c9fcf"/><stop offset=".5" stop-color="#7c9ece"/><stop offset="1" stop-color="#7b9dcf"/></linearGradient><linearGradient id="b" gradientUnits="userSpaceOnUse" x1="64" x2="64" y1="128" y2="0"><stop offset="0" stop-color="#fff"/><stop offset=".46428573" stop-color="#fff"/><stop offset=".78125" stop-color="#f1f1f1"/><stop offset=".90625" stop-color="#eaeaea"/><stop offset="1" stop-color="#dfdfdf"/></linearGradient><g transform="matrix(.125 0 0 .125 -.000006 .000003)"><path d="m36.328125 8.0097656a7.9341434 7.9341434 0 0 0 -6.875 3.9609374l-27.7773438 48a7.9341434 7.9341434 0 0 0 -.00781 7.931641l27.6796848 48.056636a7.9341434 7.9341434 0 0 0 6.867188 3.97461l55.457031.0566a7.9341434 7.9341434 0 0 0 6.875-3.96093l27.777345-47.999963a7.9341434 7.9341434 0 0 0 .008-7.931641l-27.679876-48.05664a7.9341434 7.9341434 0 0 0 -6.867188-3.9746098z" fill="url(#a)"/><path d="m91.680497 112.05599-55.457955-.056-27.6804952-48.055971 27.7774562-48.000007 55.457957.055988 27.6805 48.055986z" fill="url(#b)"/></g></svg>

<?xml version="1.0" encoding="UTF-8" standalone="no"?>
<svg
   xmlns:dc="http://purl.org/dc/elements/1.1/"
   xmlns:cc="http://creativecommons.org/ns#"
   xmlns:rdf="http://www.w3.org/1999/02/22-rdf-syntax-ns#"
   xmlns:svg="http://www.w3.org/2000/svg"
   xmlns="http://www.w3.org/2000/svg"
   xmlns:xlink="http://www.w3.org/1999/xlink"
   xmlns:sodipodi="http://sodipodi.sourceforge.net/DTD/sodipodi-0.dtd"
   xmlns:inkscape="http://www.inkscape.org/namespaces/inkscape"
   height="128"
   viewBox="0 0 128 128"
   width="128"
   version="1.1"
   id="svg31"
   sodipodi:docname="sc_basicshapes.hexagon.svg"
   inkscape:version="0.92.3 (unknown)"
   inkscape:export-filename="/home/rizmut/Dokumen/Rizmut/Github/libreoffice-style-karasa-jaga/build/images_karasa_jaga/cmd/sc_basicshapes.hexagon.png"
   inkscape:export-xdpi="12"
   inkscape:export-ydpi="12">
  <metadata
     id="metadata37">
    <rdf:RDF>
      <cc:Work
         rdf:about="">
        <dc:format>image/svg+xml</dc:format>
        <dc:type
           rdf:resource="http://purl.org/dc/dcmitype/StillImage" />
        <dc:title></dc:title>
      </cc:Work>
    </rdf:RDF>
  </metadata>
  <defs
     id="defs35">
    <linearGradient
       id="linearGradient3369">
      <stop
         id="stop3372"
         offset="0"
         style="stop-color:#ffffff;stop-opacity:1;" />
      <stop
         style="stop-color:#ffffff;stop-opacity:1;"
         offset="0.46428573"
         id="stop3374" />
      <stop
         style="stop-color:#f1f1f1;stop-opacity:1;"
         offset="0.78125"
         id="stop3376" />
      <stop
         id="stop3378"
         offset="0.90625"
         style="stop-color:#eaeaea;stop-opacity:1;" />
      <stop
         id="stop3384"
         offset="1"
         style="stop-color:#dfdfdf;stop-opacity:1;" />
    </linearGradient>
    <linearGradient
       id="linearGradient7422">
      <stop
         style="stop-color:#7c9fcf;stop-opacity:1"
         offset="0"
         id="stop7424" />
      <stop
         id="stop5348"
         offset="0.5"
         style="stop-color:#7c9ece;stop-opacity:1" />
      <stop
         id="stop7426"
         offset="1"
         style="stop-color:#7b9dcf;stop-opacity:1" />
    </linearGradient>
    <linearGradient
       inkscape:collect="always"
       xlink:href="#linearGradient7422"
       id="linearGradient870"
       x1="0.60961914"
       y1="63.999996"
       x2="127.39038"
       y2="63.999996"
       gradientUnits="userSpaceOnUse" />
    <linearGradient
       inkscape:collect="always"
       xlink:href="#linearGradient3369"
       id="linearGradient878"
       x1="64"
       y1="128"
       x2="64"
       y2="0"
       gradientUnits="userSpaceOnUse" />
  </defs>
  <sodipodi:namedview
     pagecolor="#ffffff"
     bordercolor="#666666"
     borderopacity="1"
     objecttolerance="10"
     gridtolerance="10"
     guidetolerance="10"
     inkscape:pageopacity="0"
     inkscape:pageshadow="2"
     inkscape:window-width="1366"
     inkscape:window-height="706"
     id="namedview33"
     showgrid="true"
     inkscape:zoom="1.4142136"
     inkscape:cx="20.352375"
     inkscape:cy="129.18558"
     inkscape:window-x="0"
     inkscape:window-y="0"
     inkscape:window-maximized="1"
     inkscape:current-layer="svg31"
     inkscape:snap-global="true">
    <inkscape:grid
       type="xygrid"
       id="grid844"
       spacingx="8"
       spacingy="8"
       empspacing="2" />
  </sodipodi:namedview>
  <linearGradient
     id="a">
    <stop
       offset="0"
       stop-color="#f9f9fa"
       id="stop2" />
    <stop
       offset="1"
       stop-color="#f9f9fa"
       stop-opacity="0"
       id="stop4" />
  </linearGradient>
  <linearGradient
     id="b"
     gradientUnits="userSpaceOnUse"
     x1="42.276669"
     x2="-13.469376"
     xlink:href="#a"
     y1="50.867565"
     y2="104.97279" />
  <linearGradient
     id="c"
     gradientUnits="userSpaceOnUse"
     x1="-1.817377"
     x2="2.172436"
     xlink:href="#a"
     y1="55.003803"
     y2="116.784" />
  <g
     id="g920">
    <path
       d="m 36.328125,8.0097656 a 7.9341434,7.9341434 0 0 0 -6.875,3.9609374 l -27.7773438,48 a 7.9341434,7.9341434 0 0 0 -0.00781,7.931641 L 29.347656,115.95898 a 7.9341434,7.9341434 0 0 0 6.867188,3.97461 l 55.457031,0.0566 a 7.9341434,7.9341434 0 0 0 6.875,-3.96093 L 126.32422,68.029297 a 7.9341434,7.9341434 0 0 0 0.008,-7.931641 L 98.652344,12.041016 A 7.9341434,7.9341434 0 0 0 91.785156,8.0664062 Z"
       id="path860"
       style="fill:url(#linearGradient870);fill-opacity:1.0;stroke:none;stroke-width:3.17435145;stroke-linecap:round;stroke-linejoin:bevel;stroke-opacity:0.73039198"
       inkscape:original="M 36.320312 15.943359 L 8.5429688 63.943359 L 36.222656 112 L 91.679688 112.05664 L 119.45703 64.056641 L 91.777344 16 L 36.320312 15.943359 z "
       inkscape:radius="7.9333501"
       sodipodi:type="inkscape:offset" />
    <path
       id="path7"
       style="fill:url(#linearGradient878);fill-opacity:1;stroke:none;stroke-width:3.17435145;stroke-linecap:round;stroke-linejoin:bevel;stroke-opacity:0.73039198"
       d="M 91.680497,112.05599 36.222542,111.99999 8.5420468,63.944019 36.319503,15.944012 91.77746,16 l 27.6805,48.055986 z"
       inkscape:connector-curvature="0" />
  </g>
</svg>
